X:1
T:James Gibb editions
T:Natus est nobis - Handl
T:#
%%score [ 1 2 3 4 ]
L:1/8
Q:1/4=120
M:4/4
K:F
V:1 treble nm="Soprano"
V:2 treble nm="Alto"
V:3 treble-8 nm="Tenor"
V:4 bass nm="Bass"
V:1
"^Natus est nobis""^Jacob Handl\n(1550-91)" G8 | ^F4 G2 (B2- | B2 AG A4) | B4 z2 F2 | D2 B,2 C4 | %5
w: Na-|tus est no\-||bis De-|us de De-|
 (B,CDE F2) F2 |[M:4/4] D2 B,2 C3 C | B,2 B4 A2 | B4 z2 G2 | B2 A2 (GD G2- | G2) F2 E3 E | %11
w: o, * * * * lu-|men de lu- mi-|ne, lu- mi-|ne, quod|e- rat in * *|* prin- ci- pi-|
 D2 A2 B2 A2 | G4 G2 (G2- | G2 ^FE F2) F2 | G4 z4 | z4 G4 | G2 F2 G2 A2 | (G3 A B4) | A4 A4 | %19
w: o, quod e- rat|in prin- ci\-|* * * * pi-|o,|Vir-|go ver- bo con-|ci\- * *|pit, Vir-|
 A2 G2 A2 B2 | (A4 F3 G) | A2 A2 A2 G2 | (F2 ED E4) | F4 A4 | B2 G2 A4 ||[M:3/4] A2 ^F2 G2 | %26
w: go ver- bo con-|ci\- * *|pit, Vir- go per-|man\- * * *|sit, Vir-|go per- man-|sit, Vir- go|
[M:3/4] A3 G A2 | B4 A2 | G2 ^F G2 F | G4 z2 | B4 A2 | A3 G A2 | A4 G2 | F2 ED E2 | ^F2 F2 G2 | %35
w: pe- pe- rit|re- gem|o- mni- um re-|gnum,|Vir- go|pe- pe- rit|re- gem|o- mni- um re-|gnum, Vir- go|
 A3 G A2 | B4 A2 | G2 ^F G2 F ||[M:4/4] G8 | z4 z2 D2 | (DEFG AGFE | FD G4) ^F2 |[M:4/4] G8 | %43
w: pe- pe- rit|re- gem|o- mni- um re-|gnum.|Al-|le\- * * * * * * *|* * * lu-|ja,|
 z4 z2[Q:1/4=118] D2 | %44
w: al-|
[Q:1/4=117] (D[Q:1/4=115]E[Q:1/4=114]F[Q:1/4=113]G[Q:1/4=112] A[Q:1/4=111]G[Q:1/4=110]F[Q:1/4=108]E | %45
w: le\- * * * * * * *|
[Q:1/4=107] F[Q:1/4=106]D[Q:1/4=104] G4)[Q:1/4=101] ^F2 |[Q:1/4=100] !fermata!G8 |] %47
w: * * * lu-|ja.|
V:2
 D8 | D4 D4 | F4 F2 F2 | D2 B,2 C4 | (B,CDE F2) F2 | D2 B,2 C3 C |[M:4/4] (B,CDE F4) | z2 D2 F4 | %8
w: Na-|tus est|no- bis De-|us de De-|o, * * * * lu-|men de lu- mi-|ne, * * * *|quod e-|
 _E2 D2 C2 B,2- | B,2 F2 D4 | z2 D4 ^C2 | D2 C2 D4 | z2 D2 _E2 D2 | D3 C B,2 A,2 | G,4 z2 D2 | %15
w: rat in prin- ci\-|* pi- o,|in prin-|ci- pi- o,|quod e- rat|in prin- ci- pi-|o, Vir-|
 D2 C2 D2 _E2 | (D3 C B,2) A,2 | z2 C2 D2 E2 | F2 F2 E4 | ^F2 G2 G2 =F2 | E4 D2 F2 | F2 E4 (D2- | %22
w: go ver- bo con-|ci\- * * pit,|Vir- go ver-|bo con- ci-|pit, Vir- go per-|man- sit, Vir-|go per- man\-|
 DA, D4 ^C2) | D2 F2 F2 E2 | (F2 ED E4) ||[M:3/4] ^F2 D2 D2 |[M:3/4] F3 E F2 | F4 F2 | D2 DC D2 | %29
w: |sit, Vir- go per-|man\- * * *|sit, Vir- go|pe- pe- rit|re- gem|o- mni- um re-|
 D4 z2 | D4 F2 | D3 E F2 | D4 E2 | D2 ^C D2 C | D2 D2 D2 | F3 E F2 | F4 F2 | D2 DC D2 || %38
w: gnum,|Vir- go|pe- pe- rit|re- gem|o- mni- um re-|gnum, Vir- go|pe- pe- rit|re- gem|o- mni- um re-|
[M:4/4] D8 | z2 G,2 (G,A,B,C | D^CDE FG A2) | D2 C2 D2 D2 |[M:4/4] D4 D4 | z2 G,2 (G,A,B,C | %44
w: gnum.|Al- le\- * * *||lu- ja, al- le-|lu- ja,|al- le\- * * *|
 D^CDE FG A2) | D2 C2 DD D2 | !fermata!D8 |] %47
w: |lu- ja, al- le- lu-|ja.|
V:3
 G4 B4 | A4 B4 | c8 | B2 B2 A2 F2 | G4 F4 | B4 A2 F2 |[M:4/4][K:treble-8] G3 G F2 f2 | d2 B2 c3 c | %8
w: Na\- *|tus est|no-|bis De- us de|De- o,|lu- men de|lu- mi\-ne, * lu-|men de lu- mi-|
 B2 d2 f2 _e2 | (d3 c B2) B2 | (A3 G A2) A2 | d4 z2 d2 | _e2 d2 (B3 A/G/ | A2) A2 d4- | d2 d2 d4 | %15
w: ne, quod e- rat|in * * prin-|ci\- * * pi-|o, quod|e- rat in * *|* prin- ci\-|* pi- o,|
 z8 | z2 d2 d2 c2 | d2 e2 f2 g2 | z2 d2 d2 ^c2 | d2 _e2 d4 | A4 z2 d2 | d2 c2 B4 | A4 z4 | d4 A4 | %24
w: |Vir- go ver-|bo con- ci- pit,|Vir- go ver-|bo con- ci-|pit, Vir-|go per- man-|sit,|Vir- go|
 d2 (d3 ^c c2) ||[M:3/4]"^sit," d2 A2 =B2 |[M:3/4][K:treble-8] c3 c c2 | d4 c2 | B2 AG A2 | %29
w: per- man\- * *|sit, Vir- go|pe- pe- rit|re- gem|o- mni- um re-|
 =B4 z2 | G4 d2 | f3 e d2 | f4 c2 | d2 AB A2 | d2 A2 =B2 | c3 c c2 | d4 c2 | B2 AG A2 || %38
w: gnum,|Vir- go|pe- pe- rit|re- gem|o- mni- um re-|gnum, Vir- go|pe- pe- rit|re- gem|o- mni- um re-|
[M:4/4] =B4 z2 G2 | (GABc dc BA/G/) | (A2 ag fedc | B2 AG A4) |[M:4/4][K:treble-8] B4 z2 G2 | %43
w: gnum. Al-|le\- * * * * * * * *|lu\- * * * * * *||ja, al-|
 (GABc dc BA/G/) | (A2 ag fedc | B2 AG A4) | !fermata!=B8 |] %47
w: le\- * * * * * * * *|lu\- * * * * * *||ja.|
V:4
 G,8 | D,4 G,4 | F,8 | B,,4 z4 | B,4 A,2 F,2 | G,4 F,4 |[M:4/4] B,4 A,2 F,2 | G,3 G, F,4 | %8
w: Na-|tus est|no-|bis|De- us de|De- o,|lu- men de|lu- mi\-ne, *|
 G,2 B,2 A,2 G,2- | G,2 F,2 G,3 G, | D,4 z2 A,2 | B,2 A,2 G,2 F,2 | G,6 G,2 | D,8 | %14
w: quod e- rat in|* prin- ci- pi-|o, quod|e- rat in prin-|ci- pi-|o,|
 z2 G,2 G,2 F,2 | G,2 A,2 (G,3 A, | B,4 B,2 F,2 | B,2 C2 B,2 G,2 | D4 A,4 | z4 z2 D2 | D2 C2 B,4 | %21
w: Vir- go ver-|bo con- ci\- *|* pit, Vir-|go ver- bo con-|ci- pit,|Vir-|go per- man-|
 A,4 z4 | D,4 A,4 | D,2 D2 D2 C2 | B,4 A,4 ||[M:3/4] D,4 G,2 |[M:3/4] F,3 C, F,2 | B,4 F,2 | %28
w: sit,|per- man-|sit, Vir\-go * per-|man- sit,|Vir- go|pe- pe- rit|re- gem|
 G,2 D,_E, D,2 | G,4 z2 | z6 | z6 | z6 | z6 | D,4 G,2 | F,3 C, F,2 | B,4 F,2 | G,2 D,_E, D,2 || %38
w: o- mni- um re-|gnum,|||||Vir- go|pe- pe- rit|re- gem|o- mni- um re-|
[M:4/4] G,2 G,2 G,A,B,C | DCB,A, B,2) G,2 | D,4 D,4- | D,2 _E,2 D,4 |[M:4/4] G,2 G,2 (G,A,B,C | %43
w: gnum. Al- le\- * * *|* * * * * lu-|ja, al\-|* le- lu-|ja, al- le\- * * *|
 DCB,A, B,2) G,2 | D,4 D,4- | D,2 _E,2 D,4 | !fermata!G,8 |] %47
w: * * * * * lu-|ja, al\-|* le- lu-|ja.|

